src/assets/outline/Harmony.svg

<svg width="24" height="24" viewBox="0 0 24 24"  xmlns="http://www.w3.org/2000/svg">
<path d="M13.25 12.72V5.74001C13.25 3.26001 15.26 1.25 17.74 1.25H18.26C20.74 1.25 22.75 3.26001 22.75 5.74001C22.75 7.73001 21.77 9.54001 20.12 10.57C18.37 11.67 16.34 12.36 14.09 12.62L13.25 12.72ZM17.74 2.75C16.09 2.75 14.75 4.09001 14.75 5.74001V11.01C16.45 10.72 17.98 10.14 19.32 9.3C20.51 8.55 21.25 7.19001 21.25 5.74001C21.25 4.09001 19.91 2.75 18.26 2.75H17.74Z" />
<path d="M18.26 22.7495H17.74C15.26 22.7495 13.25 20.7395 13.25 18.2595V11.2095L13.91 11.1295C19.07 10.5295 21.38 7.56952 21.4 7.53952L22.75 5.76953V18.2495C22.75 20.7395 20.74 22.7495 18.26 22.7495ZM14.75 12.5295V18.2595C14.75 19.9095 16.09 21.2495 17.74 21.2495H18.26C19.91 21.2495 21.25 19.9095 21.25 18.2595V9.77953C20.01 10.7695 17.89 12.0395 14.75 12.5295Z" />
<path d="M6.26001 22.7493H5.73999C3.25999 22.7493 1.25 20.7393 1.25 18.2593C1.25 16.2693 2.23 14.4593 3.88 13.4293C5.63 12.3293 7.65997 11.6393 9.90997 11.3793L10.75 11.2793V18.2593C10.75 20.7393 8.74001 22.7493 6.26001 22.7493ZM9.25 12.9893C7.55 13.2793 6.01999 13.8593 4.67999 14.6993C3.48999 15.4493 2.75 16.8093 2.75 18.2593C2.75 19.9093 4.08999 21.2493 5.73999 21.2493H6.26001C7.91001 21.2493 9.25 19.9093 9.25 18.2593V12.9893Z" />
<path d="M1.25 18.22V5.74001C1.25 3.26001 3.25999 1.25 5.73999 1.25H6.26001C8.74001 1.25 10.75 3.26001 10.75 5.74001V12.79L10.09 12.87C4.93003 13.47 2.61998 16.43 2.59998 16.46L1.25 18.22ZM5.73999 2.75C4.08999 2.75 2.75 4.09001 2.75 5.74001V14.22C3.99 13.23 6.11 11.95 9.25 11.46V5.73C9.25 4.08 7.91001 2.74001 6.26001 2.74001H5.73999V2.75Z" />
<path d="M10.0702 12.8506L9.93018 11.3606C11.4102 11.2206 12.7102 11.3006 13.9102 11.1406L14.1002 12.6306C12.8702 12.7806 11.5802 12.7006 10.0702 12.8506Z" />
</svg>

<?xml version="1.0" encoding="UTF-8"?>
<svg width="24" height="24" viewBox="0 0 24 24" xmlns="http://www.w3.org/2000/svg">
 <path d="m13.25 12.72v-6.98c0-2.48 2.01-4.49 4.49-4.49h0.52c2.48 0 4.49 2.01 4.49 4.49 0 1.99-0.98 3.8-2.63 4.83-1.75 1.1-3.78 1.79-6.03 2.05l-0.84 0.1zm4.49-9.97c-1.65 0-2.99 1.34-2.99 2.99v5.27c1.7-0.29 3.23-0.87 4.57-1.71 1.19-0.75 1.93-2.11 1.93-3.56 0-1.65-1.34-2.99-2.99-2.99h-0.52z"/>
 <path d="m18.26 22.75h-0.52c-2.48 0-4.49-2.01-4.49-4.49v-7.05l0.66-0.08c5.16-0.6 7.47-3.56 7.49-3.59l1.35-1.77v12.48c0 2.49-2.01 4.5-4.49 4.5zm-3.51-10.22v5.73c0 1.65 1.34 2.99 2.99 2.99h0.52c1.65 0 2.99-1.34 2.99-2.99v-8.48c-1.24 0.98997-3.36 2.26-6.5 2.75z"/>
 <path d="m6.26 22.749h-0.52002c-2.48 0-4.49-2.01-4.49-4.49 0-1.99 0.98-3.8 2.63-4.83 1.75-1.1 3.78-1.79 6.03-2.05l0.84003-0.1v6.98c0 2.48-2.01 4.49-4.49 4.49zm2.99-9.76c-1.7 0.29-3.23 0.87-4.57 1.71-1.19 0.75-1.93 2.11-1.93 3.56 0 1.65 1.34 2.99 2.99 2.99h0.52002c1.65 0 2.99-1.34 2.99-2.99v-5.27z"/>
 <path d="m1.25 18.22v-12.48c0-2.48 2.01-4.49 4.49-4.49h0.52002c2.48 0 4.49 2.01 4.49 4.49v7.05l-0.66 0.08c-5.16 0.6-7.47 3.56-7.49 3.59l-1.35 1.76zm4.49-15.47c-1.65 0-2.99 1.34-2.99 2.99v8.48c1.24-0.99 3.36-2.27 6.5-2.76v-5.73c0-1.65-1.34-2.99-2.99-2.99h-0.52002v0.00999z"/>
 <path d="m10.07 12.851-0.14002-1.49c1.48-0.14 2.78-0.06 3.98-0.22l0.19 1.49c-1.23 0.15-2.52 0.07-4.03 0.22z"/>
</svg>
